build/images/common/wapp.svg

<svg width="26" height="25" viewBox="0 0 26 25" fill="none" xmlns="http://www.w3.org/2000/svg">
<path d="M0.333374 25L2.0956 18.291C1.10875 16.4548 0.544841 14.4068 0.544841 12.3588C0.544841 5.50847 6.11346 0 12.8804 0C19.6473 0 25.2159 5.50847 25.2159 12.3588C25.2159 19.1384 19.7178 24.7175 12.8804 24.7175C10.8362 24.7175 8.86252 24.2232 7.02982 23.2345L0.333374 25ZM7.38226 20.6921L7.80519 20.9746C9.35595 21.8927 11.1182 22.387 12.8804 22.387C18.3785 22.387 22.8898 17.8672 22.8898 12.3588C22.8898 6.85028 18.3785 2.33051 12.8804 2.33051C7.38226 2.33051 2.87097 6.85028 2.87097 12.3588C2.87097 14.1949 3.36439 15.9605 4.35124 17.5141L4.63319 17.9379L3.64635 21.6808L7.38226 20.6921Z" fill="white"/>
<path fill-rule="evenodd" clip-rule="evenodd" d="M17.4621 14.0536C16.9686 13.7711 16.2638 13.418 15.6998 13.6299C15.2064 13.8418 14.9245 14.548 14.6425 14.9011C14.5015 15.1129 14.2901 15.1129 14.0786 15.0423C12.3869 14.3361 11.0476 13.2062 10.0607 11.6525C9.91976 11.4406 9.91976 11.2288 10.1312 11.0169C10.4132 10.6638 10.7656 10.3107 10.8361 9.81633C10.9066 9.3926 10.6951 8.82763 10.4837 8.4039C10.2722 7.90955 9.99025 7.13271 9.42634 6.85023C8.93292 6.56774 8.29852 6.70898 7.87559 7.06209C7.1707 7.62706 6.81825 8.61576 6.81825 9.53384C6.81825 9.81633 6.88874 10.0282 6.88874 10.3107C7.02972 10.9463 7.31167 11.5112 7.66412 12.0056C7.87559 12.4293 8.15754 12.7824 8.4395 13.2062C9.35585 14.4773 10.4837 15.5367 11.823 16.3841C12.4574 16.8079 13.2327 17.161 13.9376 17.3728C14.7835 17.6553 15.4884 17.9378 16.4047 17.7966C17.3211 17.5847 18.2374 17.0197 18.6604 16.1016C18.8014 15.8192 18.8014 15.5367 18.7309 15.2542C18.7309 14.6892 17.9555 14.3361 17.4621 14.0536Z" fill="white"/>
</svg>

<svg width="26" height="25" fill="none" xmlns="http://www.w3.org/2000/svg"><path d="M.333 25l1.763-6.709C1.109 16.455.545 14.407.545 12.359.545 5.509 6.113 0 12.88 0c6.767 0 12.336 5.508 12.336 12.359 0 6.78-5.498 12.359-12.336 12.359-2.044 0-4.017-.495-5.85-1.483L.333 25zm7.05-4.308l.422.283a10.005 10.005 0 005.075 1.412c5.498 0 10.01-4.52 10.01-10.028 0-5.509-4.512-10.028-10.01-10.028S2.871 6.85 2.871 12.359c0 1.836.493 3.601 1.48 5.155l.282.424-.987 3.743 3.736-.989z" fill="#fff"/><path fill-rule="evenodd" clip-rule="evenodd" d="M17.462 14.054c-.493-.283-1.198-.636-1.762-.424-.494.212-.775.918-1.057 1.271-.142.212-.353.212-.564.141a8.564 8.564 0 01-4.018-3.39c-.141-.211-.141-.423.07-.635.282-.353.635-.706.705-1.2.07-.424-.14-.99-.352-1.413-.212-.494-.494-1.271-1.058-1.554-.493-.282-1.127-.141-1.55.212-.705.565-1.058 1.554-1.058 2.472 0 .282.07.494.07.777.142.635.424 1.2.776 1.695.212.423.494.776.776 1.2a12.115 12.115 0 003.383 3.178c.634.424 1.41.777 2.115.989.845.282 1.55.565 2.467.424.916-.212 1.832-.777 2.255-1.695.141-.283.141-.565.07-.848 0-.565-.774-.918-1.268-1.2z" fill="#fff"/></svg>
